src/icons/svg/logo.svg

<?xml version="1.0" encoding="UTF-8"?>
<svg width="72px" height="22px" viewBox="0 0 72 22" version="1.1" xmlns="http://www.w3.org/2000/svg" xmlns:xlink="http://www.w3.org/1999/xlink">
    <!-- Generator: Sketch 54.1 (76490) - https://sketchapp.com -->
    <title>logo</title>
    <desc>Created with Sketch.</desc>
    <g id="页面1" stroke="none" stroke-width="1" fill="none" fill-rule="evenodd">
        <g id="M端首页-未登录" transform="translate(-20.000000, -84.000000)" fill="#FFFFFF">
            <g id="logo" transform="translate(20.000000, 84.000000)">
                <path d="M23.8755,14.768072 L23.8755,5.264072 C23.8755,4.686572 24.321,4.241072 24.8985,4.241072 L29.0565,4.241072 C30.3765,4.241072 31.416,4.604072 32.076,5.264072 C32.5875,5.775572 32.8515,6.402572 32.8515,7.178072 L32.8515,7.211072 C32.8515,8.597072 32.0595,9.339572 31.2015,9.785072 C32.5545,10.247072 33.495,11.022572 33.495,12.590072 L33.495,12.623072 C33.495,14.685572 31.7955,15.791072 29.2215,15.791072 L24.8985,15.791072 C24.321,15.791072 23.8755,15.345572 23.8755,14.768072 Z M25.872,9.108572 L28.644,9.108572 C29.9475,9.108572 30.822,8.597072 30.822,7.541072 L30.822,7.508072 C30.822,6.600572 30.096,6.039572 28.7925,6.039572 L25.872,6.039572 L25.872,9.108572 Z M25.872,13.992572 L29.238,13.992572 C30.624,13.992572 31.4655,13.448072 31.4655,12.408572 L31.4655,12.375572 C31.4655,11.402072 30.69,10.824572 29.0895,10.824572 L25.872,10.824572 L25.872,13.992572 Z M39.435,18.464072 C38.214,18.464072 37.125,18.200072 36.069,17.688572 C35.7225,17.556572 35.508,17.276072 35.508,16.896572 C35.508,16.451072 35.8875,16.071572 36.3495,16.071572 C36.498,16.071572 36.6135,16.104572 36.7125,16.154072 C37.5045,16.599572 38.379,16.847072 39.3855,16.847072 C41.1675,16.847072 42.141,15.923072 42.141,14.174072 L42.141,13.497572 C41.415,14.438072 40.5075,15.098072 39.072,15.098072 C37.026,15.098072 35.112,13.580072 35.112,11.022572 L35.112,10.989572 C35.112,8.415572 37.0425,6.897572 39.072,6.897572 C40.5405,6.897572 41.448,7.574072 42.1245,8.382572 L42.1245,7.970072 C42.1245,7.425572 42.57,6.980072 43.1145,6.980072 C43.6755,6.980072 44.121,7.425572 44.121,7.986572 L44.121,14.009072 C44.121,15.477572 43.7415,16.566572 43.0155,17.292572 C42.2235,18.084572 41.0025,18.464072 39.435,18.464072 Z M39.6,13.398572 C40.986,13.398572 42.1575,12.425072 42.1575,11.006072 L42.1575,10.973072 C42.1575,9.554072 40.986,8.580572 39.6,8.580572 C38.214,8.580572 37.125,9.537572 37.125,10.973072 L37.125,11.006072 C37.125,12.425072 38.2305,13.398572 39.6,13.398572 Z M49.137,15.972572 C47.5035,15.972572 46.0515,15.032072 46.0515,13.283072 L46.0515,13.250072 C46.0515,11.369072 47.52,10.445072 49.6485,10.445072 C50.622,10.445072 51.315,10.593572 51.9915,10.808072 L51.9915,10.593572 C51.9915,9.356072 51.2325,8.696072 49.83,8.696072 C49.071,8.696072 48.444,8.828072 47.8995,9.042572 C47.784,9.075572 47.685,9.092072 47.586,9.092072 C47.124,9.092072 46.7445,8.729072 46.7445,8.267072 C46.7445,7.904072 46.992,7.590572 47.289,7.475072 C48.114,7.161572 48.9555,6.963572 50.094,6.963572 C51.3975,6.963572 52.371,7.310072 52.9815,7.937072 C53.625,8.564072 53.922,9.488072 53.922,10.626572 L53.922,14.916572 C53.922,15.461072 53.493,15.873572 52.9485,15.873572 C52.371,15.873572 51.975,15.477572 51.975,15.032072 L51.975,14.702072 C51.381,15.411572 50.4735,15.972572 49.137,15.972572 Z M49.698,14.520572 C51.018,14.520572 52.0245,13.761572 52.0245,12.656072 L52.0245,12.062072 C51.513,11.864072 50.8365,11.715572 50.0445,11.715572 C48.7575,11.715572 47.9985,12.260072 47.9985,13.167572 L47.9985,13.200572 C47.9985,14.042072 48.741,14.520572 49.698,14.520572 Z M56.2815,4.835072 L56.2815,4.736072 C56.2815,4.142072 56.7765,3.762572 57.42,3.762572 C58.0635,3.762572 58.5585,4.142072 58.5585,4.736072 L58.5585,4.835072 C58.5585,5.429072 58.0635,5.825072 57.42,5.825072 C56.7765,5.825072 56.2815,5.429072 56.2815,4.835072 Z M56.43,14.883572 L56.43,7.986572 C56.43,7.425572 56.859,6.980072 57.42,6.980072 C57.981,6.980072 58.4265,7.425572 58.4265,7.986572 L58.4265,14.883572 C58.4265,15.444572 57.981,15.873572 57.42,15.873572 C56.8755,15.873572 56.43,15.444572 56.43,14.883572 Z M61.0335,14.883572 L61.0335,7.986572 C61.0335,7.425572 61.4625,6.980072 62.0235,6.980072 C62.5845,6.980072 63.03,7.425572 63.03,7.986572 L63.03,8.415572 C63.591,7.607072 64.3995,6.897572 65.7525,6.897572 C67.716,6.897572 68.8545,8.217572 68.8545,10.230572 L68.8545,14.883572 C68.8545,15.444572 68.4255,15.873572 67.8645,15.873572 C67.3035,15.873572 66.858,15.444572 66.858,14.883572 L66.858,10.841072 C66.858,9.488072 66.1815,8.712572 64.9935,8.712572 C63.8385,8.712572 63.03,9.521072 63.03,10.874072 L63.03,14.883572 C63.03,15.444572 62.5845,15.873572 62.0235,15.873572 C61.479,15.873572 61.0335,15.444572 61.0335,14.883572 Z" id="Bgain" fill-rule="nonzero"></path>
                <g id="编组" transform="translate(2.200000, 2.200000)">
                    <path d="M0.0312512684,11.1897546 L2.5531826,1.46630505 C2.55545846,1.4581544 2.55716535,1.4501419 2.55873,1.4418531 C2.58262647,1.30923235 2.87308241,-0.0682275489 4.58523625,0.00264166473 L12.7746144,0.00264166473 C12.7746144,0.00264166473 16.2356202,-0.119894383 16.4866754,2.93867168 C16.4866754,2.93867168 16.8658897,6.36788511 13.5782755,8.03061777 C13.5782755,8.03061777 13.5407239,8.0478861 13.4880948,8.08117943 C13.4707414,8.09209302 13.4586509,8.10162513 13.4378838,8.11599238 C13.4209571,8.12773484 13.4074442,8.13947731 13.3873882,8.15729822 C13.371884,8.17125103 13.3558108,8.19404522 13.3437203,8.20882691 C13.3206773,8.23700882 13.3142764,8.26298038 13.3102937,8.29074785 C13.3102937,8.29074785 13.2734533,8.46978586 13.5614911,8.54673353 C13.5710213,8.54922017 13.5910772,8.55626564 13.6008919,8.55847599 C13.6983269,8.58030316 14.3450963,8.81611943 14.834405,9.21301465 C14.8388145,9.21660647 14.842086,9.22088901 14.846211,9.22461897 C14.9570167,9.32588044 16.9919151,11.1418177 15.3446232,14.335353 C15.339787,14.344747 15.335662,14.3545554 15.3305413,14.3639494 C15.20224,14.5993512 13.508862,17.5424267 9.03424743,17.582351 C9.02784659,17.5824892 9.02158799,17.5826273 9.01518715,17.5830418 C8.77394657,17.5986523 3.82140256,17.8876551 4.38937051,15.2978205 C4.39207309,15.2858017 4.39406446,15.273783 4.39548687,15.2616261 C4.41753421,15.0585505 4.71126169,12.9961597 7.76147577,9.96328892 C7.76147577,9.96328892 7.98607417,9.72843968 8.1419702,9.929443 C8.16899598,9.96439409 8.18378903,10.0069433 8.19346141,10.0497687 L8.56243433,11.640527 C8.5731024,11.6884639 8.59330061,11.7427555 8.61748157,11.7819891 C8.69329597,11.905354 8.90295907,12.0712681 9.12158335,11.7666548 C9.14363069,11.7359863 9.16055736,11.7037981 9.17677282,11.6634593 L11.8097943,3.70676686 C11.8167641,3.68521599 11.822027,3.66325068 11.8247296,3.64073278 C11.837958,3.52952475 11.834971,3.24148906 11.4159292,3.37839236 C11.403412,3.38239861 11.3908948,3.38737189 11.3789466,3.39289775 L3.85810071,6.76685254 C3.85810071,6.76685254 3.38045574,6.98097979 3.82922581,7.19938959 C3.84814385,7.20878356 3.86834206,7.21582904 3.88882475,7.22149305 L5.465423,7.65886523 C5.465423,7.65886523 5.89669744,7.80239956 5.58021141,8.10494065 C5.21422555,8.45472788 2.87564275,9.54843464 1.00318341,11.582091 C0.994933434,11.5909323 0.987252425,11.6001882 0.979998139,11.6097203 C0.943299984,11.6586242 0.777304842,11.8518913 0.442043017,11.8615616 C0.362245866,11.8639101 0.283302161,11.8413922 0.217871342,11.7969089 C0.0938372689,11.7125014 -0.0691708141,11.5311149 0.0312512684,11.1897546" id="Fill-1"></path>
                </g>
            </g>
        </g>
    </g>
</svg>

<svg width="72" height="22" xmlns="http://www.w3.org/2000/svg"><g fill="#FFF" fill-rule="evenodd"><path d="M23.875 14.768V5.264c0-.577.446-1.023 1.023-1.023h4.159c1.32 0 2.359.363 3.019 1.023.511.512.776 1.139.776 1.914v.033c0 1.386-.792 2.129-1.65 2.574 1.352.462 2.293 1.238 2.293 2.805v.033c0 2.063-1.7 3.168-4.273 3.168h-4.324a1.007 1.007 0 01-1.023-1.023zm1.997-5.66h2.772c1.304 0 2.178-.51 2.178-1.567v-.033c0-.907-.726-1.468-2.03-1.468h-2.92v3.069zm0 4.885h3.366c1.386 0 2.227-.545 2.227-1.584v-.033c0-.974-.775-1.551-2.375-1.551h-3.218v3.168zm13.563 4.471a7.527 7.527 0 01-3.366-.775c-.347-.132-.561-.413-.561-.792a.842.842 0 011.204-.743 5.327 5.327 0 002.673.693c1.782 0 2.756-.924 2.756-2.673v-.676c-.726.94-1.633 1.6-3.069 1.6-2.046 0-3.96-1.518-3.96-4.075v-.033c0-2.574 1.93-4.092 3.96-4.092 1.468 0 2.376.676 3.052 1.485V7.97c0-.544.446-.99.99-.99a1 1 0 011.007 1.007v6.022c0 1.469-.38 2.558-1.105 3.284-.792.792-2.014 1.171-3.581 1.171zM39.6 13.4c1.386 0 2.557-.974 2.557-2.393v-.033c0-1.419-1.171-2.392-2.557-2.392s-2.475.957-2.475 2.392v.033c0 1.42 1.105 2.393 2.475 2.393zm9.537 2.574c-1.633 0-3.086-.94-3.086-2.69v-.033c0-1.88 1.469-2.805 3.597-2.805.974 0 1.667.149 2.343.363v-.214c0-1.238-.758-1.898-2.161-1.898-.759 0-1.386.132-1.93.347a1.13 1.13 0 01-.314.05.831.831 0 01-.841-.826c0-.363.247-.676.544-.792a7.468 7.468 0 012.805-.511c1.303 0 2.277.346 2.887.973.644.627.941 1.551.941 2.69v4.29a.951.951 0 01-.973.957c-.578 0-.974-.396-.974-.842v-.33c-.594.71-1.502 1.27-2.838 1.27zm.561-1.452c1.32 0 2.327-.76 2.327-1.865v-.594a5.535 5.535 0 00-1.98-.346c-1.288 0-2.047.544-2.047 1.452v.033c0 .841.743 1.32 1.7 1.32zm6.584-9.686v-.099c0-.594.495-.973 1.138-.973.643 0 1.139.38 1.139.973v.1c0 .593-.495.99-1.139.99s-1.139-.397-1.139-.99zm.148 10.049V7.987a.986.986 0 01.99-1.007 1 1 0 011.006 1.007v6.897c0 .56-.445.99-1.006.99a.982.982 0 01-.99-.99zm4.603 0V7.987a.986.986 0 01.99-1.007 1 1 0 011.007 1.007v.429c.561-.809 1.37-1.518 2.722-1.518 1.964 0 3.103 1.32 3.103 3.333v4.653c0 .56-.43.99-.99.99a.986.986 0 01-1.007-.99V10.84c0-1.353-.677-2.128-1.865-2.128-1.154 0-1.963.808-1.963 2.161v4.01c0 .56-.446.99-1.007.99a.982.982 0 01-.99-.99z" fill-rule="nonzero"/><path d="M2.231 13.39l2.522-9.724a.29.29 0 00.006-.024c.024-.133.314-1.51 2.026-1.44h8.19s3.46-.122 3.712 2.937c0 0 .379 3.429-2.909 5.092 0 0-.037.017-.09.05l-.05.035a.519.519 0 00-.05.041c-.016.014-.032.037-.044.052a.152.152 0 00-.034.082s-.037.179.251.256c.01.002.03.01.04.011a4.09 4.09 0 011.233.655l.012.012c.111.1 2.146 1.917.499 5.11l-.014.029c-.129.235-1.822 3.178-6.297 3.218a.44.44 0 00-.019.001c-.241.016-5.194.305-4.626-2.285a.35.35 0 00.006-.036c.023-.203.316-2.266 3.366-5.299 0 0 .225-.235.381-.034a.303.303 0 01.051.12l.37 1.592a.49.49 0 00.054.141c.076.123.286.29.505-.015a.472.472 0 00.055-.104l2.633-7.956a.35.35 0 00.015-.066c.013-.111.01-.4-.41-.263a.325.325 0 00-.036.015l-7.52 3.374s-.479.214-.03.432c.02.01.04.017.06.022l1.576.438s.432.143.115.446c-.366.35-2.704 1.443-4.577 3.477a.688.688 0 01-.561.28.38.38 0 01-.224-.065c-.124-.084-.287-.266-.187-.607"/></g></svg>
